packages/sources/assets/src/assets/flag-cu.svg

<svg width="28" height="20" viewBox="0 0 28 20" fill="none" xmlns="http://www.w3.org/2000/svg">
<rect x="0.25" y="0.25" width="27.5" height="19.5" rx="1.75" fill="white" stroke="#F5F5F5" stroke-width="0.5"/>
<mask id="mask0_503_4774" style="mask-type:alpha" maskUnits="userSpaceOnUse" x="0" y="0" width="28" height="20">
<rect x="0.25" y="0.25" width="27.5" height="19.5" rx="1.75" fill="white" stroke="white" stroke-width="0.5"/>
</mask>
<g mask="url(#mask0_503_4774)">
<path fill-rule="evenodd" clip-rule="evenodd" d="M0 4H28V0H0V4Z" fill="#0B389F"/>
<path fill-rule="evenodd" clip-rule="evenodd" d="M0 12H28V8H0V12Z" fill="#0B389F"/>
<path fill-rule="evenodd" clip-rule="evenodd" d="M0 20H28V16H0V20Z" fill="#0B389F"/>
<path fill-rule="evenodd" clip-rule="evenodd" d="M0 0L13.3333 10L0 20V0Z" fill="#E12A43"/>
<path fill-rule="evenodd" clip-rule="evenodd" d="M4.66667 11.0227L3.09924 12.1574L3.69403 10.316L2.13052 9.17596L4.06555 9.17264L4.66667 7.33334L5.26779 9.17264L7.20282 9.17596L5.6393 10.316L6.23409 12.1574L4.66667 11.0227Z" fill="white"/>
</g>
</svg>

<svg width="28" height="20" fill="none" xmlns="http://www.w3.org/2000/svg"><rect x=".25" y=".25" width="27.5" height="19.5" rx="1.75" fill="#fff" stroke="#F5F5F5" stroke-width=".5"/><mask id="a" style="mask-type:alpha" maskUnits="userSpaceOnUse" x="0" y="0" width="28" height="20"><rect x=".25" y=".25" width="27.5" height="19.5" rx="1.75" fill="#fff" stroke="#fff" stroke-width=".5"/></mask><g mask="url(#a)" fill-rule="evenodd" clip-rule="evenodd"><path d="M0 4h28V0H0v4Zm0 8h28V8H0v4Zm0 8h28v-4H0v4Z" fill="#0B389F"/><path d="m0 0 13.333 10L0 20V0Z" fill="#E12A43"/><path d="m4.667 11.023-1.568 1.134.595-1.841-1.563-1.14 1.935-.003.6-1.84.602 1.84 1.935.003-1.564 1.14.595 1.841-1.567-1.134Z" fill="#fff"/></g></svg>
